X: 10494
T: Donnybrook Fair
R: jig
M: 6/8
K: Gmajor
D2|:GFG A3|Bee dBA|BAB G2B|AGE EDE|
GFG AGA|Be2 dBA|BAB GAB|1 AGF G3:|2 AGF GBd||
|:gfe fed|efe dBA|efe dBA|Bee e2f|
[1gfe fed|efe dBA|BAB GAB|AGF GBd:|
[2 g3 aga|bge dBA|BAB G2B|AGF G3||

